X: 7878
T: Con Casey's
R: jig
M: 6/8
K: Aminor
|:A|EAE AEA|~G3 GEG|EAE AEd|AGE EDC|
EAE AEA|~G3 GAB|cBA BGE|EDD D2:|
|:e|fed ecA|~G3 Gce|~f3 ecA|GEG A2e|
fed ecA|~G3 GAB|cBA BGE|EDD D2:|

